X: 1
T: Steel March, The
Z: Juan J. Almaraz
S: https://thesession.org/tunes/16040#setting30222
R: reel
M: 4/4
L: 1/8
K: Edor
Q: 1/4=83
BGEG ~F3E|BGEG GFED|BGEG ~F3E|~D3F AFDF:|
|:EGBe ~d3B|EGBe dBAF|EGBe ~d3B|A~F3 BFAF|
EGBe ~d3B|eBef gfec|dABG AFGE|~F3F FEDF:|
